svgs/sharp-light/address-card.svg

<svg xmlns="http://www.w3.org/2000/svg" viewBox="0 0 576 512"><!--! Font Awesome Pro 6.6.0 by @fontawesome - https://fontawesome.com License - https://fontawesome.com/license (Commercial License) Copyright 2024 Fonticons, Inc. --><path d="M544 64l0 384L32 448 32 64l512 0zM32 32L0 32 0 64 0 448l0 32 32 0 512 0 32 0 0-32 0-384 0-32-32 0L32 32zM160 192a32 32 0 1 1 64 0 32 32 0 1 1 -64 0zm96 0a64 64 0 1 0 -128 0 64 64 0 1 0 128 0zM135.1 320l113.9 0 21.3 64 33.7 0-32-96-160 0L80 384l33.7 0 21.3-64zM352 160l-16 0 0 32 16 0 128 0 16 0 0-32-16 0-128 0zm0 64l-16 0 0 32 16 0 128 0 16 0 0-32-16 0-128 0zm0 64l-16 0 0 32 16 0 128 0 16 0 0-32-16 0-128 0z"/></svg>

<svg xmlns="http://www.w3.org/2000/svg" viewBox="0 0 576 512"><!--! Font Awesome Pro 6.4.0 by @fontawesome - https://fontawesome.com License - https://fontawesome.com/license (Commercial License) Copyright 2023 Fonticons, Inc. --><path d="M544 64V448H32V64H544zM32 32H0V64 448v32H32 544h32V448 64 32H544 32zM160 192a32 32 0 1 1 64 0 32 32 0 1 1 -64 0zm96 0a64 64 0 1 0 -128 0 64 64 0 1 0 128 0zM135.1 320H248.9l21.3 64H304l-32-96H112L80 384h33.7l21.3-64zM352 160H336v32h16H480h16V160H480 352zm0 64H336v32h16H480h16V224H480 352zm0 64H336v32h16H480h16V288H480 352z"/></svg>
